X:1
T:At Christmas Time
T:At Christmas Time
T:Edmund Simon Lorenz
T:Bertha E. Bush, 1907
T:Public Domain Courtesy of the Cyber Hymnal™
C:Edmund Simon Lorenz
Z:Public Domain
Z:Courtesy of the Cyber Hymnal™
%%score ( 1 2 ) 3
L:1/8
Q:1/4=95
M:2/4
K:F
V:1 treble 
V:2 treble 
V:3 bass 
V:1
 CF F[CEG] | [CFA] [FAc]2 z | [DFB] [FBd]2 z | [FAc] [CFA]2 z | CF [A,CF][CEG] | [CFA] [FAc]2 z | %6
w: 1.~Christ- mas bells are|ring- ing,|Ring- ing,|ring- ing,|Hap- py child- ren|sing- ing,|
w: 2.~While the star shone|o’er Him,|O’er Him,|o’er Him,|Wise men knelt be-|fore Him|
w: 3.~Gold and myrrh they|brought Him,|Brought Him,|brought Him,|Bear- ing gifts they|sought Him,|
 [EGc]2 [DG=B]2 | [EGc]4 | dc BG | [FA] [Ac]2 z | dc BG | [FA] [Ac]2 z | dd BG | cc [CFA][A,CF] | %14
w: Christ is|born.|In the mang- er|low- ly|Lay the Christ child|ho- ly,|An- gels sing- ing,|shep- herds bring- ing,|
w: Where He|lay.|Forth they brought their|trea- sure,|Wealth be- yond our|mea- sure,|With hearts glow- ing,|all be- stow- ing,|
w: Far they|came.|Now, while bells are|ring- ing,|We, too, pre- sents|bring- ing,|Bow be- fore Him,|low a- dore Him,|
 [B,DG]2 [B,CE]2 | [A,CF]4 |] %16
w: Love and|praise.|
w: Hail Him|king!|
w: Crown Him|king.|
V:2
 A,2 [A,C]2 | x4 | x4 | x4 | A,2 x2 | x4 | x4 | x4 | E4 | x4 | E4 | x4 | [DF]4 | [FA]2 x2 | x4 | %15
 x4 |] %16
V:3
 F,,2 C,2 | F,,2 C,2 | F,,2 F,2 | F,,2 F,2 | F,,2 C,2 | F,,2 C,2 | G,,2 G,2 | C,4 | C,2 G,2 | %9
 F,,2 [C,F,]2 | C,2 G,2 | F,,2 F,2 | B,,2 B,2 | F,,2 F,2 | B,,2 C,2 | F,,4 |] %16

